T: Dancing Bear, The
M: 4/4
L: 1/8
K: Emin
|:EFGF EFGF|EFGA G2 E2|EFGF EFGF|EFGA G2 E2|EFGF EFGF|EFGA B2 e2|B2BA BcBA|GFE2 E3z:||:e2 ef gfef|gf e2 e3z|d2 ef gfef|gf e2 e3z|c#2 ef gfe2|c2 ef gfe2|B2Bc BAGF|G2E2 E3z:|Em|Em|D|D|A/C#(C# in bass.. or not)|C|B|Em
